scalable/mimes/application-x-cd-image.svg

<?xml version="1.0" encoding="UTF-8" standalone="no"?>
<svg
   xmlns:dc="http://purl.org/dc/elements/1.1/"
   xmlns:cc="http://creativecommons.org/ns#"
   xmlns:rdf="http://www.w3.org/1999/02/22-rdf-syntax-ns#"
   xmlns:svg="http://www.w3.org/2000/svg"
   xmlns="http://www.w3.org/2000/svg"
   xmlns:xlink="http://www.w3.org/1999/xlink"
   xmlns:sodipodi="http://sodipodi.sourceforge.net/DTD/sodipodi-0.dtd"
   xmlns:inkscape="http://www.inkscape.org/namespaces/inkscape"
   viewBox="0 0 48 48"
   version="1.1"
   id="svg29"
   sodipodi:docname="application-x-cd-image.svg"
   inkscape:version="0.92.3 (2405546, 2018-03-11)">
  <metadata
     id="metadata33">
    <rdf:RDF>
      <cc:Work
         rdf:about="">
        <dc:format>image/svg+xml</dc:format>
        <dc:type
           rdf:resource="http://purl.org/dc/dcmitype/StillImage" />
        <dc:title></dc:title>
      </cc:Work>
    </rdf:RDF>
  </metadata>
  <sodipodi:namedview
     pagecolor="#ffffff"
     bordercolor="#666666"
     borderopacity="1"
     objecttolerance="10"
     gridtolerance="10"
     guidetolerance="10"
     inkscape:pageopacity="0"
     inkscape:pageshadow="2"
     inkscape:window-width="883"
     inkscape:window-height="480"
     id="namedview31"
     showgrid="false"
     inkscape:zoom="4.9166667"
     inkscape:cx="4.1694915"
     inkscape:cy="24"
     inkscape:window-x="0"
     inkscape:window-y="25"
     inkscape:window-maximized="0"
     inkscape:current-layer="svg29" />
  <defs
     id="defs9">
    <linearGradient
       id="a">
      <stop
         offset="0"
         stop-color="#fff"
         stop-opacity=".32673267"
         id="stop2" />
      <stop
         offset="1"
         stop-color="#fff"
         stop-opacity=".60396039"
         id="stop4" />
    </linearGradient>
    <linearGradient
       x1="21.125"
       y1="14.625"
       x2="29"
       y2="28"
       id="c"
       xlink:href="#a"
       gradientUnits="userSpaceOnUse"
       gradientTransform="translate(9.6712492 6.81559) scale(.59703)" />
    <linearGradient
       xlink:href="#a"
       id="b"
       gradientUnits="userSpaceOnUse"
       gradientTransform="translate(9.6712492 6.81559) scale(.59703)"
       x1="21.125"
       y1="14.625"
       x2="29"
       y2="28" />
  </defs>
  <path
     d="M40.885933 17.41884l-7.829991 30.54988H14.944096L7.1134314 17.41884 13.01282.031184h21.973436z"
     fill="#6f918a"
     id="path11" />
  <path
     d="M18.278 43.817l-3.3353 4.1525h18.113l-3.3353-4.1525z"
     fill="#93aca7"
     id="path13" />
  <path
     d="M29.720697 43.81628l3.335267 4.152486 7.830696-30.549597-4.440822.160819zM7.1138205 17.419402L14.94292 47.968999l3.335266-4.152486-6.72514-26.236082zM13.012829.0308959l3.085782 4.1524863h15.801742L34.986135.03089591z"
     fill="#536c67"
     stroke-width=".12053"
     id="path15" />
  <path
     d="M7.1134314 17.41884L13.01282.031184l3.086 4.1526827L11.553057 17.57988zm29.3325876.16104L31.900256 4.1838667l3.086-4.1526827 5.899677 17.387656z"
     fill="#374845"
     id="path17" />
  <path
     d="M23.952476 11.051474c-5.515431 0-9.950521 4.435063-9.950521 9.950493 0 5.515456 4.43509 9.950519 9.950521 9.950519 5.51543 0 9.95052-4.435062 9.95052-9.950519 0-5.51543-4.43509-9.950493-9.95052-9.950493zm0 12.338625c-1.307783 0-2.388125-1.080327-2.388125-2.388132 0-1.307779 1.080342-2.388107 2.388125-2.388107 1.307782 0 2.388125 1.080328 2.388125 2.388107 0 1.307805-1.080343 2.388132-2.388125 2.388132z"
     fill="#1a1a1a"
     id="path19" />
  <path
     d="M24.000001 10.049494c-5.515431 0-9.950522 4.435063-9.950522 9.950493 0 5.515456 4.435091 9.950519 9.950522 9.950519 5.51543 0 9.95052-4.435062 9.95052-9.950519 0-5.51543-4.43509-9.950493-9.95052-9.950493zm0 12.338625c-1.307783 0-2.388125-1.080327-2.388125-2.388132 0-1.307779 1.080342-2.388107 2.388125-2.388107 1.307782 0 2.388125 1.080328 2.388125 2.388107 0 1.307805-1.080343 2.388132-2.388125 2.388132z"
     fill="#b3b3b3"
     id="path21" />
  <path
     d="M26.662811 10.767165l-1.717825 6.684197c.537189.143119.966783.475452 1.258605.935436l5.918834-3.605722c-1.210898-1.972452-3.154334-3.423635-5.459614-4.013911z"
     fill="url(#b)"
     id="path23" />
  <path
     d="M20.637913 28.963126l2.261674-6.520284c-.523603-.186737-.924405-.553352-1.177415-1.035784l-6.195303 3.10679c1.044594 2.065343 2.862113 3.671436 5.111044 4.449278z"
     fill="url(#c)"
     id="path25" />
  <path
     d="M24.000001 15.174026c-2.695042 0-4.826001 2.193609-4.826001 4.825961 0 2.695069 2.193634 4.826032 4.826001 4.826032 2.695042 0 4.826001-2.193634 4.826001-4.826032 0-2.695044-2.193636-4.825961-4.826001-4.825961zm0 7.458338c-1.44153 0-2.632367-1.190837-2.632367-2.632377 0-1.441514 1.190837-2.632352 2.632367-2.632352s2.632365 1.190838 2.632365 2.632352c0 1.44154-1.190835 2.632377-2.632365 2.632377z"
     fill="#fff"
     id="path27" />
</svg>

<svg xmlns="http://www.w3.org/2000/svg" xmlns:xlink="http://www.w3.org/1999/xlink" viewBox="0 0 48 48"><defs><linearGradient id="a"><stop offset="0" stop-color="#fff" stop-opacity=".33"/><stop offset="1" stop-color="#fff" stop-opacity=".6"/></linearGradient><linearGradient x1="21.13" y1="14.63" x2="29" y2="28" id="c" xlink:href="#a" gradientUnits="userSpaceOnUse" gradientTransform="translate(9.67 6.82) scale(.59703)"/><linearGradient xlink:href="#a" id="b" gradientUnits="userSpaceOnUse" gradientTransform="translate(9.67 6.82) scale(.59703)" x1="21.13" y1="14.63" x2="29" y2="28"/></defs><path d="M40.89 17.42l-7.83 30.55H14.94L7.11 17.42 13.01.03H35z" fill="#6f918a"/><path d="M18.28 43.82l-3.34 4.15h18.12l-3.34-4.15z" fill="#93aca7"/><path d="M29.72 43.82l3.34 4.15 7.83-30.55-4.44.16zm-22.6-26.4l7.82 30.55 3.34-4.15-6.73-26.24zM13.01.03l3.08 4.15h15.8L34.99.03z" fill="#536c67"/><path d="M7.11 17.42L13.01.03l3.09 4.15-4.55 13.4zm29.34.16L31.9 4.18 34.99.03l5.9 17.39z" fill="#374845"/><path d="M23.95 11.05A9.93 9.93 0 0 0 14 21a9.93 9.93 0 0 0 9.95 9.95A9.93 9.93 0 0 0 33.9 21a9.93 9.93 0 0 0-9.95-9.95zm0 12.34A2.4 2.4 0 0 1 21.56 21a2.4 2.4 0 0 1 2.4-2.39 2.4 2.4 0 0 1 2.38 2.4 2.4 2.4 0 0 1-2.39 2.38z" fill="#1a1a1a"/><path d="M24 10.05A9.93 9.93 0 0 0 14.05 20 9.93 9.93 0 0 0 24 29.95 9.93 9.93 0 0 0 33.95 20 9.93 9.93 0 0 0 24 10.05zm0 12.34A2.4 2.4 0 0 1 21.61 20 2.4 2.4 0 0 1 24 17.61 2.4 2.4 0 0 1 26.39 20 2.4 2.4 0 0 1 24 22.39z" fill="#b3b3b3"/><path d="M26.66 10.77l-1.72 6.68c.54.14.97.48 1.26.94l5.92-3.6a9.02 9.02 0 0 0-5.46-4.02z" fill="url(#b)"/><path d="M20.64 28.96l2.26-6.52a2.12 2.12 0 0 1-1.18-1.03l-6.2 3.1a9.02 9.02 0 0 0 5.12 4.45z" fill="url(#c)"/><path d="M24 15.17a4.83 4.83 0 1 0 0 9.66 4.83 4.83 0 0 0 0-9.66zm0 7.46A2.65 2.65 0 0 1 21.37 20c0-1.44 1.19-2.63 2.63-2.63s2.63 1.19 2.63 2.63-1.19 2.63-2.63 2.63z" fill="#fff"/></svg>
